src/images/svg/be-square/quality-assurance.svg

<svg width="48" height="48" viewBox="0 0 48 48" fill="none" xmlns="http://www.w3.org/2000/svg">
<path d="M37.7083 10.9393C37.7083 11.41 37.3267 11.7916 36.856 11.7916C36.3853 11.7916 36.0037 11.41 36.0037 10.9393C36.0037 10.4685 36.3853 10.0869 36.856 10.0869C37.3267 10.0869 37.7083 10.4685 37.7083 10.9393Z" fill="#FF444F"/>
<path d="M34.0199 11.7892C34.4897 11.7558 34.8434 11.3478 34.81 10.878C34.7766 10.4083 34.3687 10.0545 33.8989 10.088C33.4291 10.1214 33.0754 10.5293 33.1089 10.9991C33.1423 11.4689 33.5502 11.8226 34.0199 11.7892Z" fill="#FF444F"/>
<path d="M31.8834 10.9393C31.8834 11.41 31.5018 11.7916 31.031 11.7916C30.5603 11.7916 30.1787 11.41 30.1787 10.9393C30.1787 10.4685 30.5603 10.0869 31.031 10.0869C31.5018 10.0869 31.8834 10.4685 31.8834 10.9393Z" fill="#FF444F"/>
<path fill-rule="evenodd" clip-rule="evenodd" d="M40.0521 7.5C41.1262 7.5 42 8.37384 42 9.44787V32.0564C42 32.3477 41.7639 32.5838 41.4727 32.5838C41.1814 32.5838 40.9453 32.3477 40.9453 32.0564V14.3792H7.05469V16.9807C7.05469 17.272 6.81858 17.5081 6.52734 17.5081C6.23611 17.5081 6 17.272 6 16.9807V9.44787C6 8.37384 6.87384 7.5 7.94787 7.5H40.0521ZM7.05469 9.44787V13.3245H40.9453V9.44787C40.9453 8.95533 40.5446 8.55469 40.0521 8.55469H7.94787C7.4554 8.55469 7.05469 8.95533 7.05469 9.44787Z" fill="#FF444F"/>
<path d="M41.4727 33.9897C41.1814 33.9897 40.9453 34.2258 40.9453 34.5171V38.2844C40.9453 38.7771 40.5447 39.178 40.0523 39.178H7.94766C7.45526 39.178 7.05469 38.7771 7.05469 38.2844V19.4414C7.05469 19.1501 6.81858 18.914 6.52734 18.914C6.23611 18.914 6 19.1501 6 19.4414V38.2844C6 39.3587 6.8737 40.2327 7.94766 40.2327H40.0523C41.1263 40.2327 42 39.3587 42 38.2844V34.5171C42 34.2258 41.7639 33.9897 41.4727 33.9897Z" fill="#FF444F"/>
<path d="M25.3643 23.9643L26.5561 22.8175C27.3302 22.0731 28.5658 22.0969 29.3105 22.8705C30.0545 23.6454 30.0306 24.8808 29.2576 25.625L23.6459 31.0229C23.2819 31.3739 22.8023 31.5675 22.2959 31.5675C21.7654 31.5675 21.2693 31.3579 20.8992 30.9775L18.4128 28.4202C17.6646 27.6498 17.6824 26.4143 18.4521 25.6656C19.2221 24.917 20.4578 24.9342 21.2066 25.7042L22.3416 26.8721L23.5912 25.6699C23.801 25.4681 24.1349 25.4745 24.3367 25.6844C24.5387 25.8942 24.5322 26.2281 24.3223 26.43L22.6946 27.9959C22.4855 28.1971 22.1531 28.1915 21.9508 27.9833L20.4503 26.4393C20.107 26.0862 19.5404 26.0784 19.1873 26.4217C18.8343 26.7651 18.8261 27.3319 19.1692 27.6851L21.6552 30.2421C21.8249 30.4166 22.0525 30.5127 22.2959 30.5127C22.5277 30.5127 22.7473 30.4241 22.9141 30.2632L28.5262 24.8649C28.8806 24.5237 28.8914 23.9569 28.5501 23.6014C28.2091 23.2472 27.6423 23.2362 27.2872 23.5776L26.0955 24.7242C25.8857 24.9262 25.5519 24.9198 25.3499 24.7099C25.148 24.5001 25.1544 24.1662 25.3643 23.9643Z" fill="#FF444F"/>
<path fill-rule="evenodd" clip-rule="evenodd" d="M23.9994 17.8697C19.0872 17.8697 15.0908 21.866 15.0908 26.7782C15.0908 31.6904 19.0872 35.6868 23.9994 35.6868C28.9115 35.6868 32.9079 31.6904 32.9079 26.7783C32.9079 21.8661 28.9115 17.8697 23.9994 17.8697ZM23.9994 34.6321C19.6688 34.6321 16.1455 31.1089 16.1455 26.7783C16.1455 22.4476 19.6688 18.9243 23.9994 18.9243C28.33 18.9243 31.8532 22.4476 31.8532 26.7782C31.8532 31.1088 28.33 34.6321 23.9994 34.6321Z" fill="#FF444F"/>
<path fill-rule="evenodd" clip-rule="evenodd" d="M12.8189 26.7783C12.8189 20.6129 17.8348 15.5969 24.0002 15.5969C30.1657 15.5969 35.1816 20.6129 35.1816 26.7784C35.1816 32.9438 30.1657 37.9597 24.0002 37.9597C17.8348 37.9597 12.8189 32.9437 12.8189 26.7783ZM13.8736 26.7784C13.8736 32.3622 18.4163 36.905 24.0002 36.905C29.5842 36.905 34.1269 32.3623 34.1269 26.7784C34.1269 21.1944 29.5842 16.6516 24.0002 16.6516C18.4163 16.6516 13.8736 21.1945 13.8736 26.7784Z" fill="#FF444F"/>
<path d="M8.80076 35.688H11.3578C11.649 35.688 11.8851 35.4519 11.8851 35.1606C11.8851 34.8693 11.649 34.6333 11.3578 34.6333H8.80076C8.50952 34.6333 8.27341 34.8693 8.27341 35.1606C8.27341 35.4519 8.50952 35.688 8.80076 35.688Z" fill="#FF444F"/>
<path d="M14.0568 37.9599H8.80075C8.50952 37.9599 8.27341 37.7239 8.27341 37.4326C8.27341 37.1413 8.50952 36.9052 8.80075 36.9052H14.0568C14.348 36.9052 14.5841 37.1413 14.5841 37.4326C14.5841 37.7239 14.348 37.9599 14.0568 37.9599Z" fill="#FF444F"/>
</svg>

<svg xmlns="http://www.w3.org/2000/svg" width="48" height="48" fill="#ff444f"  xmlns:v="https://vecta.io/nano"><path d="M37.708 10.939a.85.85 0 0 1-.852.852c-.47 0-.852-.382-.852-.852s.382-.852.852-.852.852.382.852.852zm-3.688.85a.85.85 0 0 0 .79-.911c-.034-.47-.441-.823-.911-.79s-.823.441-.79.911.441.823.911.79zm-2.137-.85a.85.85 0 0 1-.852.852c-.47 0-.852-.382-.852-.852s.382-.852.852-.852.852.382.852.852z"/><path fill-rule="evenodd" d="M40.052 7.5A1.95 1.95 0 0 1 42 9.448v22.609c0 .291-.236.527-.527.527a.53.53 0 0 1-.527-.527V14.379H7.055v2.601c0 .291-.236.527-.527.527S6 17.272 6 16.981V9.448A1.95 1.95 0 0 1 7.948 7.5h32.104zM7.055 9.448v3.877h33.891V9.448c0-.493-.401-.893-.893-.893H7.948c-.492 0-.893.401-.893.893z"/><path d="M41.473 33.99a.53.53 0 0 0-.527.527v3.767c0 .493-.401.894-.893.894H7.948c-.492 0-.893-.401-.893-.894V19.441c0-.291-.236-.527-.527-.527a.53.53 0 0 0-.528.527v18.843a1.95 1.95 0 0 0 1.948 1.948h32.105A1.95 1.95 0 0 0 42 38.284v-3.767c0-.291-.236-.527-.527-.527zM25.364 23.964l1.192-1.147a1.95 1.95 0 0 1 2.754.053c.744.775.72 2.01-.053 2.755l-5.612 5.398c-.364.351-.844.545-1.35.545-.53 0-1.027-.21-1.397-.59l-2.486-2.557a1.95 1.95 0 0 1 .039-2.755 1.95 1.95 0 0 1 2.755.039l1.135 1.168 1.25-1.202c.21-.202.544-.195.745.015a.53.53 0 0 1-.014.746l-1.628 1.566c-.209.201-.542.196-.744-.013l-1.501-1.544c-.343-.353-.91-.361-1.263-.018s-.361.91-.018 1.263l2.486 2.557a.89.89 0 0 0 1.259.022l5.612-5.398c.354-.341.365-.908.024-1.263s-.908-.365-1.263-.024l-1.192 1.147a.53.53 0 0 1-.746-.014.53.53 0 0 1 .014-.746z"/><path d="M23.999 17.87a8.92 8.92 0 0 0-8.909 8.908 8.92 8.92 0 0 0 8.909 8.909 8.92 8.92 0 0 0 8.908-8.908 8.92 8.92 0 0 0-8.908-8.909zm0 16.762c-4.331 0-7.854-3.523-7.854-7.854s3.523-7.854 7.854-7.854 7.854 3.523 7.854 7.854-3.523 7.854-7.854 7.854zm-11.18-7.854c0-6.165 5.016-11.181 11.181-11.181s11.181 5.016 11.181 11.182S30.166 37.96 24 37.96s-11.181-5.016-11.181-11.181zm1.055 0A10.14 10.14 0 0 0 24 36.905a10.14 10.14 0 0 0 10.127-10.127A10.14 10.14 0 0 0 24 16.652a10.14 10.14 0 0 0-10.127 10.127z" fill-rule="evenodd"/><path d="M8.801 35.688h2.557c.291 0 .527-.236.527-.527s-.236-.527-.527-.527H8.801c-.291 0-.527.236-.527.527s.236.527.527.527zm5.256 2.272H8.801c-.291 0-.527-.236-.527-.527s.236-.527.527-.527h5.256c.291 0 .527.236.527.527s-.236.527-.527.527z"/></svg>
